GeneralPlan/dist/assets/img/customer-developer-2.svg

<svg width="57" height="42" viewBox="0 0 57 42" fill="none" xmlns="http://www.w3.org/2000/svg">
<path d="M4.22762 23.2201L12.8286 17.9792V37.7782H4.22762V23.2201ZM17.0563 17.9064L25.6573 23.2201V37.7782H17.0563V17.9064ZM29.9578 20.7452L19.243 14.5581L36.0077 4.87695L52.7724 14.5581V37.7782H29.9578V20.7452ZM36.0077 0L0 20.7452V42H57V12.156L36.0077 0Z" fill="#CFCFCF"/>
</svg>

<svg width="57" height="42" fill="none" xmlns="http://www.w3.org/2000/svg"><path d="M4.228 23.22l8.6-5.24v19.798h-8.6V23.22zm12.828-5.314l8.601 5.314v14.558h-8.6V17.906zm12.902 2.84l-10.715-6.188 16.765-9.681 16.764 9.681v23.22H29.958V20.745zM36.008 0L0 20.745V42h57V12.156L36.008 0z" fill="#CFCFCF"/></svg>
